!!!SOCIAL_FUNCTION:	songs connected with war and hunting
!!!PDT:	1932
!!!OTL: No_31_I_Will_Shoot_Him_Through_the_Heart.krn
!!!REG: Wisconsin
!!!LANG: Non-Tone
!!!LING_GROUP: Algonquin
**kern
*staff1
=1-
=
*clefF4
*k[]
*M3/4
4e\
8e\L
8e\J
4c\
=2
2.c\
=3
4.B\
8A\
4F\
=4
4A\
8A\L
8A\J
4A\
=5
2.A\
=6
4E\
4r
4A\
=7||
*M2/4
2A\
=8||
*M3/4
4e\
8e\L
8e\J
4c\
=9
2.c\
=10
4.B\
8A\
4F\
=11
4A\
8A\L
8A\J
4A\
=12
2.A\
=13
4E\
4r
4A\
=14||
*M2/4
2A\
==:|!
*-
